X:1
T:Westenhanger, SM
T:Westenhanger, SM
T:Clement William Poole (1828-1924)
T:Public Domain Courtesy of the Cyber Hymnal™
C:Clement William Poole (1828-1924)
Z:Public Domain
Z:Courtesy of the Cyber Hymnal™
%%score ( 1 2 ) ( 3 4 )
L:1/8
Q:1/4=110
M:4/4
K:E
V:1 treble 
V:2 treble 
V:3 bass 
V:4 bass 
V:1
 E2 | [EG]2 [GB]2 [FB]2 [DA]2 x | [EG]6 E2 | [EF]2 [EG]2 [EA]2 [DB]2 | [EG]6 [FB]2 | %5
 [Ee]2 [Fd]2 [Fc]2 [GB]2 | [B,E]2 [DF]2 [EG]2 [GB]2 | [FB]2 [FA]2 [EG]2 [DF]2 x | E6 |] %9
V:2
 E2 | x9 | x6 E2 | x8 | x8 | x8 | x8 | x9 | E6 |] %9
V:3
 [E,G,]2 | [E,B,]2 [E,B,]2 B,3 (z B,) | [E,B,]6 [G,B,]2 | [A,C]2 [G,B,]2 [F,B,]2 [B,,B,]2 | %4
 [E,B,]6 [D,B,]2 | [C,^A,]2 [B,,B,]2 [=A,,D]2 [G,,E]2 | G,2 [F,A,]2 [E,B,]2 [E,B,]2 | %7
 [A,,C]2 [A,,C]2 B,3 (z A,) | [E,G,]6 |] %9
V:4
 x2 | x4 D,2 B,,2 x | x8 | x8 | x8 | x8 | G,2 x6 | x4 B,,2 B,,2 x | x6 |] %9

